Papirus/16x16/apps/cool-retro-term.svg

<svg width="16" height="16" version="1.1" xmlns="http://www.w3.org/2000/svg" xmlns:xlink="http://www.w3.org/1999/xlink">
 <g transform="translate(-2e-4)">
  <rect y="1" width="16" height="14" rx=".80000001" ry=".80000001" style="fill:#4f4f4f"/>
  <path transform="translate(2e-4)" d="m2 2v1h2v-1h-2zm2 1v1h1v-1h-1zm-2 0h-1v4h1v-4zm0 4v1h2v-1h-2zm2 0h1v-1h-1v1zm2-5v6h1v-2h2v-1h-2v-2h2v-1h-3zm3 1v2h1v-2h-1zm0 3v2h1v-2h-1zm2-4v1h1v5h1v-5h1v-1h-1-1-1zm-10 7v5h4v-5h-4z" style="fill:#ffc105"/>
 </g>
</svg>

<svg xmlns="http://www.w3.org/2000/svg" width="16" height="16" version="1.1">
 <rect style="fill:#4f4f4f" width="16" height="14" x="0" y="1" rx=".8" ry=".8"/>
 <path style="fill:#ffc105" d="M 2,2 V 3 H 4 V 2 Z M 4,3 V 4 H 5 V 3 Z M 2,3 H 1 V 7 H 2 Z M 2,7 V 8 H 4 V 7 Z M 4,7 H 5 V 6 H 4 Z M 6,2 V 8 H 7 V 6 H 9 V 5 H 7 V 3 H 9 V 2 Z M 9,3 V 5 H 10 V 3 Z M 9,6 V 8 H 10 V 6 Z M 11,2 V 3 H 12 V 8 H 13 V 3 H 14 V 2 H 13 12 Z M 1,9 V 14 H 5 V 9 Z"/>
</svg>
